X:1
T:Title
%%score { 1 | 2 }
L:1/8
Q:1/4=100
M:2/4
K:G
V:1 treble nm="Grand Piano"
V:2 bass 
V:1
 DG GB | Bd d2 | [Fd][FA] [FA]2 |[M:5/8] [DGB][DBd] [DBd]3 |[M:2/4] z4 | z4 | [Fd]2 [CFA]>[DFB] | %7
w: W.~B.~Bradbury * * *|||||||
 [B,G]4 | AA AD | GB [Fd]2 | [FA]A AD | GB [Fd]2 | [Ee][Ee] [Ge]2 | dd d2 | [Fd]2 [CFA]>[DFB] | %15
w: ||||||||
 [B,G]4 |] %16
w: |
V:2
 z4 | z4 | [D,A,][D,D] [D,D]2 |[M:5/8] G,G, G,3 |[M:2/4][K:treble] DG GB | Bd d2 | [D,A,]2 D,>D, | %7
 G,,4 | [D,F,D][D,F,D] [D,F,D][F,A,] | [G,B,D][G,D] [D,A,]2 | [D,D][D,F,D] [D,F,D][F,A,] | %11
 [G,B,D][G,D] [D,A,]2 | [C,C][C,C] [C,C]2 | [G,B,G][G,B,G] [G,B,G]2 | [D,A,]2 D,>D, | G,,4 |] %16

